svg/fluentui-system-icons/ic_fluent_tab_inprivate_account_20_regular.svg

<svg width="20" height="20" viewBox="0 0 20 20" fill="none" xmlns="http://www.w3.org/2000/svg">
<path d="M5.5 3C4.11929 3 3 4.11929 3 5.5V14.5C3 15.8807 4.11929 17 5.5 17H10.1606C10.0616 16.6844 10.0062 16.35 10.0005 16H5.5C4.67157 16 4 15.3284 4 14.5V5.5C4 4.67157 4.67157 4 5.5 4H14.5C15.3284 4 16 4.67157 16 5.5V7.14494C16.3612 7.25244 16.698 7.41669 17 7.62734V5.5C17 4.11929 15.8807 3 14.5 3H5.5ZM13.5 10.5C13.5 11.3284 14.1716 12 15 12H17.0002C16.5441 12.6072 15.8179 13 15 13C13.6193 13 12.5 11.8807 12.5 10.5C12.5 9.11929 13.6193 8 15 8C15.8179 8 16.5441 8.39278 17.0002 9H15C14.1716 9 13.5 9.67157 13.5 10.5ZM12.1812 15.1934C12.3001 15.0597 12.4351 15 12.55 15H18.8668C18.7916 14.8266 18.6882 14.6663 18.5661 14.5289C18.305 14.2352 17.915 14 17.45 14H12.55C12.085 14 11.695 14.2352 11.4339 14.5289C11.1747 14.8204 11 15.2151 11 15.62V15.94C11 17.5744 12.6332 19 15 19C16.2407 19 17.2799 18.6082 17.9878 18H15C12.9702 18 12 16.829 12 15.94V15.62C12 15.4946 12.0603 15.3293 12.1812 15.1934ZM17.5 10.5C17.5 10.6712 17.4828 10.8384 17.45 11H15V10H17.45C17.4828 10.1616 17.5 10.3288 17.5 10.5ZM18.7611 17H15V16H18.9993C18.9908 16.3474 18.9085 16.6847 18.7611 17Z" fill="#212121"/>
</svg>

<svg xmlns="http://www.w3.org/2000/svg" width="20" height="20"><path d="M5.5 3A2.5 2.5 0 0 0 3 5.5v9A2.5 2.5 0 0 0 5.5 17h4.66a3.522 3.522 0 0 1-.16-1H5.5A1.5 1.5 0 0 1 4 14.5v-9A1.5 1.5 0 0 1 5.5 4h9A1.5 1.5 0 0 1 16 5.5v1.645c.361.107.698.272 1 .482V5.5A2.5 2.5 0 0 0 14.5 3h-9Zm8 7.5A1.5 1.5 0 0 0 15 12h2a2.5 2.5 0 1 1 0-3h-2a1.5 1.5 0 0 0-1.5 1.5Zm-1.319 4.693c.12-.133.254-.193.369-.193h6.317a1.779 1.779 0 0 0-.3-.471c-.262-.294-.652-.529-1.117-.529h-4.9c-.465 0-.855.235-1.116.529-.26.291-.434.686-.434 1.091v.32c0 1.634 1.633 3.06 4 3.06 1.24 0 2.28-.392 2.988-1H15c-2.03 0-3-1.171-3-2.06v-.32c0-.125.06-.29.181-.427ZM17.5 10.5c0 .171-.017.338-.05.5H15v-1h2.45c.033.162.05.329.05.5Zm1.261 6.5H15v-1h4c-.01.347-.091.685-.239 1Z"/></svg>
